X:1
L:1/16
M:2/4
K:G
V:1 treble
 V:1  z2 | z | z | z | z | z | z | z | z4 z2 B3/2A | G2 G2 G2 c3/2B | A2 A2 A2 d3/2c | 
  B2 cd ed cB | AGFG A2 | 
